DVA
CUT[Muede kehrt ein Wandersmann zurueck
    nach der Heimat seiner Liebe Glueck]
REG[Europa, Mitteleuropa, Deutschland, ???]
KEY[D1011  08  G 4/4]
MEL[-5-5  3_.21-713  -5__0_
    -71  2_.1-7265  3__0_
    12  3_.54321  -6__0_
    1-6  -5_.1-7265  3__0_
    12  3_.54321  -6__0_
    1-6  -5_.1-7265  3__0_ //] >>
FCT[Liebes - Lied]
CMT[DVA-Signatur A 57 199]
